X:1
T: Lamentation for James Moray of Abercairney
C:Niel Gow
R:Strathspey
Q: 128
K:G
M:4/4
L:1/16
|:B,2|G,3B, D2G2 E2G2 D2G2|A3B cBAG E4-E2G2|G,3B, D2G2 E2G2 D2ge|d2G2 dcBA G4-G3B,|
G,3B, D2G2 E2G2 D2G2|A3B cBAG E4-E2G2|G,3B, D2G2 E2G2 D2ge|d2G2 dcBA G4-G2e2|
d2ef g2d2 e2d2 g2B2|c2ac B2gB A4-A3B|G,3B, D2G2 E2G2 D2ge|d2G2 dcBA G4-G3e|
d2ef g2d2 e2d2 g2B2|cBca BABg A4-A2Bc|edcB dcBA cBAG BAGF|AGFE DEDB, G,4-G,2:|
